X: 3
T:Sean Ryan's
M:6/8
R:Jig (Am)
K:G
N:not in the WWWABC
A|cBc BAB|AGE DB,G,|A,G,A, EDE|DEG AGE|
cec BdB|AGE DB,G,|A,G,A, EDE|DB,G, A,2:|
A|cBA ~a3|bag edB|GBd ~g3|GBd cAB|
cBc d^cd|ede gab|age dBG|EFG A2 :|
%%newpage
